TF1/root5.svg

<svg xmlns="http://www.w3.org/2000/svg" viewBox="0 0 1198 574" preserveAspectRatio="none" width="1198" height="574">
 <path d="M0,0H1198V574H0Z" style="fill: white;"></path>
 <g>
  <g transform="translate(120,57)">
   <path d="M0,0H958V459H0Z" style="fill: white; stroke: black; stroke-width: 1;"></path>
   <svg x="0" y="0" overflow="hidden" width="958" height="459" viewBox="0 0 958 459">
    <g>
     <path d="M115,458h10M120,457v2M153,458h10M158,457v2M163,458h10M168,457v2M172,458h10M177,457v2M182,456h10M187,454v3M192,456h10M197,454v3M201,454h10M206,453v3M211,456h10M216,454v3M220,447h10M225,444v6M230,448h10M235,445v6M240,441h10M245,437v7M249,443h10M254,439v7M259,412h10M264,406v12M268,401h10M273,395v13M278,402h10M283,396v13M287,385h10M292,378v15M297,381h10M302,374v15M307,344h10M312,334v19M316,325h10M321,314v21M326,287h10M331,276v23M335,279h10M340,267v23M345,251h10M350,238v26M354,226h10M359,212v27M364,186h10M369,172v29M374,150h10M379,135v31M383,112h10M388,96v32M393,117h10M398,101v33M402,99h10M407,82v34M412,104h10M417,87v33M422,40h10M427,22v36M431,95h10M436,78v34M441,94h10M446,77v33M450,94h10M455,77v33M460,108h10M465,92v33M469,117h10M474,101v33M479,169h10M484,154v30M489,165h10M494,150v30M498,209h10M503,196v27M508,231h10M513,218v26M517,267h10M522,255v24M527,282h10M532,271v23M536,331h10M541,321v20M546,345h10M551,336v19M556,384h10M561,376v15M565,388h10M570,381v15M575,404h10M580,397v13M584,414h10M589,409v11M594,427h10M599,422v10M604,429h10M609,424v10M613,442h10M618,439v7M623,440h10M628,436v8M632,442h10M637,439v7M642,451h10M647,449v5M651,456h10M656,454v3M661,456h10M666,454v3M671,457h10M676,455v3M680,457h10M685,455v3M690,457h10M695,456v3M699,458h10M704,457v2M709,458h10M714,457v2M757,458h10M762,457v2" style="stroke: blue; stroke-width: 2;"></path>
    </g>
    <g>
     <path d="M5,459h10h9h10h9h10h9h10h10h9h10h9h10h10h9h10l9,-1h10h9l10,-1l10,-1l9,-1l10,-2l9,-3l10,-4l10,-5l9,-6l10,-8l9,-11l10,-12l9,-15l10,-18l10,-20l9,-24l10,-25l9,-28l10,-29l9,-29l10,-29l10,-28l9,-26l10,-22l9,-17l10,-13l10,-6l9,-1l10,6l9,11l10,17l9,21l10,25l10,28l9,29l10,30l9,29l10,27l9,26l10,24l10,21l9,18l10,16l9,12l10,11l10,9l9,6l10,5l9,4l10,3l9,2l10,2l10,1l9,1h10h9l10,1h10h9h10h9h10h9h10h10h9h10h9h10h9h10h10h9h10h9h10h10h9h10h9h10h9" style="fill: none; stroke: #9999cc; stroke-width: 3;"></path>
    </g>
    <g>
     <path d="M0,459h48v-2h9v2h20v-1h9v1h10v-1h9v1h10v-2h10v1h9v-1h38v-1h10v-5h10v1h9v-1h10v-2h9v-2h10v-2h10v5h9v-17h10v6h9v-13h10v-1h9v-1h10v-7h10v-6h9v-20h10v-5h9v-8h10v-12h9v2h10v-17h10v7h9v-30h10v-10h9v1h10v-27h10v-20h9v-16h10v21h9v8h10v-33h9v-19h10v-14h10v19h9v-22h10v26h9v-18h10v-11h9v16h10v10h10v-10h9v13h10v14h9v2h10v-1h10v8h9v16h10v4h9v19h10v-2h9v33h10v2h10v-12h9v17h10v16h9v10h10v22h10v5h9v9h10v7h9v7h10v-4h9v14h10v-4h10v16h9v-2h10v1h9v-1h10v9h9v5h10v1h10v4h9v-2h19v-2h10v3h10v2h9v-1h48" style="stroke-linejoin: miter; stroke: red; stroke-width: 2; fill: none;"></path>
    </g>
   </svg>
   <g>
    <g transform="translate(0,459)">
     <path d="M0,0h958M0,-17V0M19,-9V0M38,-9V0M57,-9V0M77,-9V0M96,-17V0M115,-9V0M134,-9V0M153,-9V0M172,-9V0M192,-17V0M211,-9V0M230,-9V0M249,-9V0M268,-9V0M287,-17V0M307,-9V0M326,-9V0M345,-9V0M364,-9V0M383,-17V0M402,-9V0M422,-9V0M441,-9V0M460,-9V0M479,-17V0M498,-9V0M517,-9V0M536,-9V0M556,-9V0M575,-17V0M594,-9V0M613,-9V0M632,-9V0M651,-9V0M671,-17V0M690,-9V0M709,-9V0M728,-9V0M747,-9V0M766,-17V0M786,-9V0M805,-9V0M824,-9V0M843,-9V0M862,-17V0M881,-9V0M901,-9V0M920,-9V0M939,-9V0M958,-17V0" style="stroke: black; stroke-width: 1;"></path>
     <g font-family="Arial" font-size="20" space="preserve" fill="black" text-anchor="middle">
      <text dy=".8em" transform="translate(0,1)">
       -5
      </text>
      <text dy=".8em" transform="translate(96,1)">
       -4
      </text>
      <text dy=".8em" transform="translate(192,1)">
       -3
      </text>
      <text dy=".8em" transform="translate(287,1)">
       -2
      </text>
      <text dy=".8em" transform="translate(383,1)">
       -1
      </text>
      <text dy=".8em" transform="translate(479,1)">
       0
      </text>
      <text dy=".8em" transform="translate(575,1)">
       1
      </text>
      <text dy=".8em" transform="translate(671,1)">
       2
      </text>
      <text dy=".8em" transform="translate(766,1)">
       3
      </text>
      <text dy=".8em" transform="translate(862,1)">
       4
      </text>
      <text dy=".8em" transform="translate(958,1)">
       5
      </text>
     </g>
     <g font-family="Arial" font-size="20" space="preserve" transform="translate(958,32)">
      <text fill="black" text-anchor="end" dy=".4em">
       Random numbers
      </text>
     </g>
    </g>
    <g>
     <path d="M0,0v459M36,459H0M18,444H0M18,428H0M18,413H0M18,398H0M36,382H0M18,367H0M18,352H0M18,336H0M18,321H0M36,305H0M18,290H0M18,275H0M18,259H0M18,244H0M36,229H0M18,213H0M18,198H0M18,183H0M18,167H0M36,152H0M18,137H0M18,121H0M18,106H0M18,90H0M36,75H0M18,60H0M18,44H0M18,29H0M18,14H0" style="stroke: black; stroke-width: 1;"></path>
     <g font-family="Arial" font-size="20" space="preserve" fill="black" text-anchor="end">
      <text dy=".4em" transform="translate(-3,459)">
       0
      </text>
      <text dy=".4em" transform="translate(-3,382)">
       100
      </text>
      <text dy=".4em" transform="translate(-3,305)">
       200
      </text>
      <text dy=".4em" transform="translate(-3,229)">
       300
      </text>
      <text dy=".4em" transform="translate(-3,152)">
       400
      </text>
      <text dy=".4em" transform="translate(-3,75)">
       500
      </text>
     </g>
     <g font-family="Arial" font-size="20" space="preserve" transform="translate(-67)">
      <text fill="black" text-anchor="end" dy=".4em" transform="rotate(270)">
       Frequency
      </text>
     </g>
    </g>
   </g>
  </g>
  <g transform="translate(671,46)" font-family="Arial" font-size="19" space="preserve">
   <path d="M0,0H431V184H0Z" style="fill: white; stroke: black; stroke-width: 1;"></path>
   <text fill="black" text-anchor="start" dy=".4em" transform="translate(22,12)">
    Entries
   </text>
   <text fill="black" text-anchor="end" dy=".4em" transform="translate(409,12)">
    10000
   </text>
   <text fill="black" text-anchor="start" dy=".4em" transform="translate(22,35)">
    Mean
   </text>
   <text fill="black" text-anchor="end" dy=".4em" transform="translate(409,35)">
    -0.4938
   </text>
   <text fill="black" text-anchor="start" dy=".4em" transform="translate(22,58)">
    Std Dev
   </text>
   <text fill="black" text-anchor="end" dy=".4em" transform="translate(409,58)">
    0.7973
   </text>
   <g transform="translate(22,87)">
    <text fill="black" font-size="19">
     χ^2 / ndf
    </text>
   </g>
   <text fill="black" text-anchor="end" dy=".4em" transform="translate(409,81)">
    60.68 / 58
   </text>
   <text fill="black" text-anchor="start" dy=".4em" transform="translate(22,104)">
    Prob
   </text>
   <text fill="black" text-anchor="end" dy=".4em" transform="translate(409,104)">
    0.3793
   </text>
   <text fill="black" text-anchor="start" dy=".4em" transform="translate(22,127)">
    Constant
   </text>
   <g transform="translate(309,133)">
    <text fill="black" font-size="19" x="8">
     501.9 ± 6.2
    </text>
   </g>
   <text fill="black" text-anchor="start" dy=".4em" transform="translate(22,150)">
    Mean
   </text>
   <g transform="translate(261,156)">
    <text fill="black" font-size="19" x="8">
     -0.4919 ± 0.0079
    </text>
   </g>
   <text fill="black" text-anchor="start" dy=".4em" transform="translate(22,173)">
    Sigma
   </text>
   <g transform="translate(267,179)">
    <text fill="black" font-size="19" x="8">
     0.7902 ± 0.0056
    </text>
   </g>
  </g>
  <g transform="translate(180,86)" font-family="Arial" font-size="14" space="preserve">
   <path d="M0,0H276V86H0Z" style="fill: white; stroke: white; stroke-width: 1;"></path>
   <path d="M8,16H61" style="stroke: blue; stroke-width: 2;"></path>
   <text fill="black" text-anchor="start" dy=".4em" transform="translate(69,16)">
    Gaussian (//mu = -0.5)
   </text>
   <path d="M8,43H61" style="stroke: #9999cc; stroke-width: 3;"></path>
   <text fill="black" text-anchor="start" dy=".4em" transform="translate(69,43)">
    Fit with Gaussian to x
   </text>
   <path d="M8,70H61" style="stroke: red; stroke-width: 2;"></path>
   <text fill="black" text-anchor="start" dy=".4em" transform="translate(69,69)">
    Gaussian (//mu = +0.5)
   </text>
  </g>
  <g transform="translate(354,3)" font-family="Arial" font-size="25" space="preserve">
   <text fill="black" text-anchor="middle" dy=".4em" transform="translate(246,16)">
    Distribution of Gaussian numbers
   </text>
  </g>
 </g>
</svg>

<svg xmlns="http://www.w3.org/2000/svg" viewBox="0 0 1198 574" preserveAspectRatio="none" width="1198" height="574">
 <path d="M0,0H1198V574H0Z" style="fill: white;"></path>
 <g>
  <g transform="translate(120,57)">
   <path d="M0,0H958V459H0Z" style="fill: white; stroke: black; stroke-width: 1;"></path>
   <svg x="0" y="0" overflow="hidden" width="958" height="459" viewBox="0 0 958 459">
    <g>
     <path d="M115,458h10M120,457v2M153,458h10M158,457v2M163,458h10M168,457v2M172,458h10M177,457v2M182,456h10M187,454v3M192,456h10M197,454v3M201,454h10M206,453v3M211,456h10M216,454v3M220,447h10M225,444v6M230,448h10M235,445v6M240,441h10M245,437v7M249,443h10M254,439v7M259,412h10M264,406v12M268,401h10M273,395v13M278,402h10M283,396v13M287,385h10M292,378v15M297,381h10M302,374v15M307,344h10M312,334v19M316,325h10M321,314v21M326,287h10M331,276v23M335,279h10M340,267v23M345,251h10M350,238v26M354,226h10M359,212v27M364,186h10M369,172v29M374,150h10M379,135v31M383,112h10M388,96v32M393,117h10M398,101v33M402,99h10M407,82v34M412,104h10M417,87v33M422,40h10M427,22v36M431,95h10M436,78v34M441,94h10M446,77v33M450,94h10M455,77v33M460,108h10M465,92v33M469,117h10M474,101v33M479,169h10M484,154v30M489,165h10M494,150v30M498,209h10M503,196v27M508,231h10M513,218v26M517,267h10M522,255v24M527,282h10M532,271v23M536,331h10M541,321v20M546,345h10M551,336v19M556,384h10M561,376v15M565,388h10M570,381v15M575,404h10M580,397v13M584,414h10M589,409v11M594,427h10M599,422v10M604,429h10M609,424v10M613,442h10M618,439v7M623,440h10M628,436v8M632,442h10M637,439v7M642,451h10M647,449v5M651,456h10M656,454v3M661,456h10M666,454v3M671,457h10M676,455v3M680,457h10M685,455v3M690,457h10M695,456v3M699,458h10M704,457v2M709,458h10M714,457v2M757,458h10M762,457v2" style="stroke: blue; stroke-width: 2;"></path>
    </g>
    <g>
     <path d="M5,459L15,459L24,459L34,459L43,459L53,459L62,459L72,459L82,459L91,459L101,459L110,459L120,459L130,459L139,459L149,459L158,458L168,458L177,458L187,457L197,456L206,455L216,453L225,450L235,446L245,441L254,435L264,427L273,416L283,404L292,389L302,371L312,351L321,327L331,302L340,274L350,245L359,216L369,187L379,159L388,133L398,111L407,94L417,81L427,75L436,74L446,80L455,91L465,108L474,129L484,154L494,182L503,211L513,241L522,270L532,297L541,323L551,347L561,368L570,386L580,402L589,414L599,425L609,434L618,440L628,445L637,449L647,452L656,454L666,456L676,457L685,458L695,458L704,458L714,459L724,459L733,459L743,459L752,459L762,459L771,459L781,459L791,459L800,459L810,459L819,459L829,459L838,459L848,459L858,459L867,459L877,459L886,459L896,459L906,459L915,459L925,459L934,459L944,459L953,459" style="fill: none; stroke: #9999cc; stroke-width: 3;"></path>
    </g>
    <g>
     <path d="M0,459h48v-2h9v2h20v-1h9v1h10v-1h9v1h10v-2h10v1h9v-1h38v-1h10v-5h10v1h9v-1h10v-2h9v-2h10v-2h10v5h9v-17h10v6h9v-13h10v-1h9v-1h10v-7h10v-6h9v-20h10v-5h9v-8h10v-12h9v2h10v-17h10v7h9v-30h10v-10h9v1h10v-27h10v-20h9v-16h10v21h9v8h10v-33h9v-19h10v-14h10v19h9v-22h10v26h9v-18h10v-11h9v16h10v10h10v-10h9v13h10v14h9v2h10v-1h10v8h9v16h10v4h9v19h10v-2h9v33h10v2h10v-12h9v17h10v16h9v10h10v22h10v5h9v9h10v7h9v7h10v-4h9v14h10v-4h10v16h9v-2h10v1h9v-1h10v9h9v5h10v1h10v4h9v-2h19v-2h10v3h10v2h9v-1h48" style="stroke-linejoin: miter; stroke: red; stroke-width: 2; fill: none;"></path>
    </g>
   </svg>
   <g>
    <g transform="translate(0,459)">
     <path d="M0,0h958M0,-17V0M19,-9V0M38,-9V0M57,-9V0M77,-9V0M96,-17V0M115,-9V0M134,-9V0M153,-9V0M172,-9V0M192,-17V0M211,-9V0M230,-9V0M249,-9V0M268,-9V0M287,-17V0M307,-9V0M326,-9V0M345,-9V0M364,-9V0M383,-17V0M402,-9V0M422,-9V0M441,-9V0M460,-9V0M479,-17V0M498,-9V0M517,-9V0M536,-9V0M556,-9V0M575,-17V0M594,-9V0M613,-9V0M632,-9V0M651,-9V0M671,-17V0M690,-9V0M709,-9V0M728,-9V0M747,-9V0M766,-17V0M786,-9V0M805,-9V0M824,-9V0M843,-9V0M862,-17V0M881,-9V0M901,-9V0M920,-9V0M939,-9V0M958,-17V0" style="stroke: black; stroke-width: 1;"></path>
     <g font-family="Arial" font-size="20" space="preserve" fill="black" text-anchor="middle">
      <text dy=".8em" transform="translate(0,1)">
       -5
      </text>
      <text dy=".8em" transform="translate(96,1)">
       -4
      </text>
      <text dy=".8em" transform="translate(192,1)">
       -3
      </text>
      <text dy=".8em" transform="translate(287,1)">
       -2
      </text>
      <text dy=".8em" transform="translate(383,1)">
       -1
      </text>
      <text dy=".8em" transform="translate(479,1)">
       0
      </text>
      <text dy=".8em" transform="translate(575,1)">
       1
      </text>
      <text dy=".8em" transform="translate(671,1)">
       2
      </text>
      <text dy=".8em" transform="translate(766,1)">
       3
      </text>
      <text dy=".8em" transform="translate(862,1)">
       4
      </text>
      <text dy=".8em" transform="translate(958,1)">
       5
      </text>
     </g>
     <g font-family="Arial" font-size="20" space="preserve" transform="translate(958,32)">
      <text fill="black" text-anchor="end" dy=".4em">
       Random numbers
      </text>
     </g>
    </g>
    <g>
     <path d="M0,0v459M36,459H0M18,444H0M18,428H0M18,413H0M18,398H0M36,382H0M18,367H0M18,352H0M18,336H0M18,321H0M36,305H0M18,290H0M18,275H0M18,259H0M18,244H0M36,229H0M18,213H0M18,198H0M18,183H0M18,167H0M36,152H0M18,137H0M18,121H0M18,106H0M18,90H0M36,75H0M18,60H0M18,44H0M18,29H0M18,14H0" style="stroke: black; stroke-width: 1;"></path>
     <g font-family="Arial" font-size="20" space="preserve" fill="black" text-anchor="end">
      <text dy=".4em" transform="translate(-3,459)">
       0
      </text>
      <text dy=".4em" transform="translate(-3,382)">
       100
      </text>
      <text dy=".4em" transform="translate(-3,305)">
       200
      </text>
      <text dy=".4em" transform="translate(-3,229)">
       300
      </text>
      <text dy=".4em" transform="translate(-3,152)">
       400
      </text>
      <text dy=".4em" transform="translate(-3,75)">
       500
      </text>
     </g>
     <g font-family="Arial" font-size="20" space="preserve" transform="translate(-67)">
      <text fill="black" text-anchor="end" dy=".4em" transform="rotate(270)">
       Frequency
      </text>
     </g>
    </g>
   </g>
  </g>
  <g transform="translate(671,46)" font-family="Arial" font-size="19" space="preserve">
   <path d="M0,0H431V184H0Z" style="fill: white; stroke: black; stroke-width: 1;"></path>
   <text fill="black" text-anchor="start" dy=".4em" transform="translate(22,12)">
    Entries
   </text>
   <text fill="black" text-anchor="end" dy=".4em" transform="translate(409,12)">
    10000
   </text>
   <text fill="black" text-anchor="start" dy=".4em" transform="translate(22,35)">
    Mean
   </text>
   <text fill="black" text-anchor="end" dy=".4em" transform="translate(409,35)">
    -0.4938
   </text>
   <text fill="black" text-anchor="start" dy=".4em" transform="translate(22,58)">
    Std Dev
   </text>
   <text fill="black" text-anchor="end" dy=".4em" transform="translate(409,58)">
    0.7973
   </text>
   <g transform="translate(22,87)">
    <text fill="black" font-size="19">
     χ^2 / ndf
    </text>
   </g>
   <text fill="black" text-anchor="end" dy=".4em" transform="translate(409,81)">
    60.68 / 58
   </text>
   <text fill="black" text-anchor="start" dy=".4em" transform="translate(22,104)">
    Prob
   </text>
   <text fill="black" text-anchor="end" dy=".4em" transform="translate(409,104)">
    0.3793
   </text>
   <text fill="black" text-anchor="start" dy=".4em" transform="translate(22,127)">
    Constant
   </text>
   <g transform="translate(309,133)">
    <text fill="black" font-size="19" x="8">
     501.9 ± 6.2
    </text>
   </g>
   <text fill="black" text-anchor="start" dy=".4em" transform="translate(22,150)">
    Mean
   </text>
   <g transform="translate(261,156)">
    <text fill="black" font-size="19" x="8">
     -0.4919 ± 0.0079
    </text>
   </g>
   <text fill="black" text-anchor="start" dy=".4em" transform="translate(22,173)">
    Sigma
   </text>
   <g transform="translate(267,179)">
    <text fill="black" font-size="19" x="8">
     0.7902 ± 0.0056
    </text>
   </g>
  </g>
  <g transform="translate(180,86)" font-family="Arial" font-size="14" space="preserve">
   <path d="M0,0H276V86H0Z" style="fill: white; stroke: white; stroke-width: 1;"></path>
   <path d="M8,16H61" style="stroke: blue; stroke-width: 2;"></path>
   <text fill="black" text-anchor="start" dy=".4em" transform="translate(69,16)">
    Gaussian (//mu = -0.5)
   </text>
   <path d="M8,43H61" style="stroke: #9999cc; stroke-width: 3;"></path>
   <text fill="black" text-anchor="start" dy=".4em" transform="translate(69,43)">
    Fit with Gaussian to x
   </text>
   <path d="M8,70H61" style="stroke: red; stroke-width: 2;"></path>
   <text fill="black" text-anchor="start" dy=".4em" transform="translate(69,69)">
    Gaussian (//mu = +0.5)
   </text>
  </g>
  <g transform="translate(354,3)" font-family="Arial" font-size="25" space="preserve">
   <text fill="black" text-anchor="middle" dy=".4em" transform="translate(246,16)">
    Distribution of Gaussian numbers
   </text>
  </g>
 </g>
</svg>
